fs/sim_24_filled.svg

<svg viewBox="0 0 24 24" fill="none" xmlns="http://www.w3.org/2000/svg" height="1em" width="1em">
  <path d="M4 5.25C4 3.45507 5.45507 2 7.25 2H12.7145C13.5764 2 14.4031 2.34241 15.0126 2.9519L19.0481 6.98744C19.6576 7.59693 20 8.42358 20 9.28553V18.75C20 20.5449 18.5449 22 16.75 22H7.25C5.45507 22 4 20.5449 4 18.75V5.25ZM7.75 14H12V10.75H9.25C8.42157 10.75 7.75 11.4216 7.75 12.25V14ZM7.75 15.5V16.75C7.75 17.5784 8.42157 18.25 9.25 18.25H12V15.5H7.75ZM13.5 18.25H14.75C15.5784 18.25 16.25 17.5784 16.25 16.75V12.25C16.25 11.4216 15.5784 10.75 14.75 10.75H13.5V18.25Z" fill="#212121"/>
</svg>

<svg viewBox="0 0 24 24" fill="none" xmlns="http://www.w3.org/2000/svg" height="1em" width="1em">
  <path d="M4 5.25A3.25 3.25 0 0 1 7.25 2h5.464a3.25 3.25 0 0 1 2.299.952l4.035 4.035c.61.61.952 1.437.952 2.299v9.464A3.25 3.25 0 0 1 16.75 22h-9.5A3.25 3.25 0 0 1 4 18.75V5.25ZM7.75 14H12v-3.25H9.25a1.5 1.5 0 0 0-1.5 1.5V14Zm0 1.5v1.25a1.5 1.5 0 0 0 1.5 1.5H12V15.5H7.75Zm5.75 2.75h1.25a1.5 1.5 0 0 0 1.5-1.5v-4.5a1.5 1.5 0 0 0-1.5-1.5H13.5v7.5Z" fill="#212121"/>
</svg>
